X: 21022
M: 2/4
L: 1/16
K: Bb
V: 1 name="2"
de |\
f2e2 c2d2 | B4 F2B2 | c2B2 e2d2 | gf=ef c2de |\
f2e2 c2d2 | B4 F2b2 | bagf fedc | B2d2B2 H|]\


